X: 2
T: The Maid Of Mount Kisco
R: reel
M: 4/4
L: 1/8
K: Ador
AG|EA~A2 BGAG|EA~A2 B2AG|EG~G2 AGBG|cGBG AGED|
EA~A2 BGAG|EA~A2 B2Bd|eg~g2 afge|dBGB A2:|
zG|~A2AB dBAF|~G2GB dG (3BAG|~A2AB ~d2cd|eg~g2 gedB|
~A2AB dBAF|~G2GB dG (3BAG|~A2AB ~d2cd|eg~ge d2||
(3Bcd|ea~a2 bgab|gedB GA (3Bcd|eaag agba|gede ga (3bag|
a2af ~g2ge|d2dB GA (3Bcd|eA~A2 egge|dBGB A2:|


Tune 432	Setting 27046

